svg/Pictogram/pictograms-aem-0112-wear-fasten_seat_belt-3_point.svg

<?xml version="1.0" encoding="ISO-8859-1" standalone="yes"?>
<svg height="305.909" width="305.905">
  <metadata>
    <rdf:RDF xmlns:cc="http://web.resource.org/cc/" xmlns:dc="http://purl.org/dc/elements/1.1/" xmlns:rdf="http://www.w3.org/1999/02/22-rdf-syntax-ns#">
      <cc:Work rdf:about="">
        <dc:title></dc:title>
        <dc:description></dc:description>
        <dc:subject>
          <rdf:Bag>
            <rdf:li></rdf:li>
          </rdf:Bag>
        </dc:subject>
        <dc:publisher>
          <cc:Agent rdf:about="http://www.unece.org/trans/danger/publi/ghs/pictograms.html">
            <dc:title>Source: UNECE GHS of Classification and Labeling of Chemicals, Source: AEM Pictorial Database, Source: AEM Pictorial Database, Source: AEM Pictorial Database, Source: AEM Pictorial Database</dc:title>
          </cc:Agent>
        </dc:publisher>
        <dc:creator>
          <cc:Agent>
            <dc:title></dc:title>
          </cc:Agent>
        </dc:creator>
        <dc:rights>
          <cc:Agent>
            <dc:title></dc:title>
          </cc:Agent>
        </dc:rights>
        <dc:date></dc:date>
        <dc:format>image/svg+xml</dc:format>
        <dc:type rdf:resource="http://purl.org/dc/dcmitype/StillImage"/>
        <cc:license rdf:resource="http://en.wikipedia.org/wiki/Public_domain"/>
        <dc:language>en</dc:language>
      </cc:Work>
    </rdf:RDF>
  </metadata>
  <defs><marker id="ArrowEnd" markerHeight="3" markerUnits="strokeWidth" markerWidth="4" orient="auto" refX="0" refY="5" viewBox="0 0 10 10"><path d="M 0 0 L 10 5 L 0 10 z"/></marker><marker id="ArrowStart" markerHeight="3" markerUnits="strokeWidth" markerWidth="4" orient="auto" refX="10" refY="5" viewBox="0 0 10 10"><path d="M 10 0 L 0 5 L 10 10 z"/></marker> </defs>
  <g id="g2958" transform="matrix(1.3532768,0,0,1.3532781,-53.207834,-52.192858)">
    <path d="M 99.4954 207.589C 86.0813 212.183 73.429 218.413 61.7766 226.054L 54.5423 214.945C 67.3118 206.581 80.4915 199.948 95.2142 194.972L 99.4954 207.589" style="stroke:none; fill-rule:evenodd; fill:#000000"/>
    <path d="M 209.315 207.589C 222.729 212.183 235.378 218.413 247.03 226.054L 254.268 214.945C 241.499 206.581 228.319 199.948 213.597 194.972L 209.315 207.589" style="stroke:none; fill-rule:evenodd; fill:#000000"/>
    <path d="M 154.218 209.663C 165.624 209.663 183.925 215.031 183.925 215.031C 181.909 222.429 164.468 267.445 164.468 267.445L 183.249 267.445C 188.62 262.074 200.491 231.085 205.39 218.394C 206.522 215.46 207.905 211.609 209.315 207.589C 192.202 201.741 173.311 198.565 154.218 198.565C 135.128 198.565 116.608 201.741 99.4954 207.589C 100.91 211.609 102.288 215.46 103.425 218.394C 108.319 231.085 120.194 262.074 125.561 267.445L 144.347 267.445C 144.347 267.445 126.901 222.429 124.89 215.031C 124.89 215.031 142.808 209.663 154.218 209.663" style="stroke:none; fill-rule:evenodd; fill:#000000"/>
    <path d="M 214.8 177.417L 195.331 112.237C 191.804 108.456 186.393 105.249 181.011 102.702C 164.468 94.9684 163.151 88.5814 163.151 88.5814C 170.983 84.3974 176.225 74.0584 176.225 62.6474C 176.225 47.4294 166.456 38.4054 154.401 38.4054C 142.358 38.4054 132.585 47.4294 132.585 62.6474C 132.585 74.0614 137.827 84.3974 145.663 88.5814C 145.663 88.5814 144.343 94.9684 127.8 102.702C 122.417 105.249 117.003 108.456 113.479 112.237L 94.011 177.417C 92.7181 181.515 93.3665 187.929 95.2142 194.972C 113.468 188.808 133.89 185.308 154.218 185.308C 174.546 185.308 195.343 188.808 213.597 194.972C 215.444 187.929 216.089 181.515 214.8 177.417" style="stroke:none; fill-rule:evenodd; fill:#000000"/>
    <path d="M 53.4798 215.331L 63.1009 225.304L 216.444 77.4364L 206.827 67.4644L 53.4798 215.331" style="stroke:none; fill-rule:evenodd; fill:#000000"/>
    <path d="M 94.5774 175.772L 95.1087 194.456L 186.85 106.054L 174.018 99.0654L 94.5774 175.772" style="stroke:none; fill-rule:evenodd; fill:#ffffff"/>
    <path d="M 95.3001 178.382L 96.4642 191.159L 94.9954 194.768L 96.9446 196.468L 97.4173 201.655L 109.835 200.526L 107.722 177.253L 95.3001 178.382" style="stroke:none; fill-rule:evenodd; fill:#ffffff"/>
    <path d="M 29.6204 267.288L 2.62042 267.288" style="stroke:#000000; stroke-width:0.5; fill:none"/>
    <path d="M 38.6204 276.288L 38.6204 303.288" style="stroke:#000000; stroke-width:0.5; fill:none"/>
    <path d="M 29.6204 38.6204L 2.62042 38.6204" style="stroke:#000000; stroke-width:0.5; fill:none"/>
    <path d="M 38.6204 29.6204L 38.6204 2.62042" style="stroke:#000000; stroke-width:0.5; fill:none"/>
    <path d="M 276.284 38.6204L 303.284 38.6204" style="stroke:#000000; stroke-width:0.5; fill:none"/>
    <path d="M 267.284 29.6204L 267.284 2.62042" style="stroke:#000000; stroke-width:0.5; fill:none"/>
    <path d="M 276.284 267.288L 303.284 267.288" style="stroke:#000000; stroke-width:0.5; fill:none"/>
    <path d="M 267.284 276.288L 267.284 303.288" style="stroke:#000000; stroke-width:0.5; fill:none"/>
  </g>
</svg>

<svg viewBox="0 0 305.9 305.91"><g transform="matrix(1.35328 0 0 1.35328-53.21-52.19)" fill-rule="evenodd"><path d="m99.5 207.59c-13.414 4.594-26.07 10.824-37.719 18.465l-7.234-11.11c12.77-8.364 25.949-14.997 40.672-19.973l4.281 12.617"/><path d="m209.31 207.59c13.414 4.594 26.06 10.824 37.715 18.465l7.238-11.11c-12.769-8.364-25.949-14.997-40.671-19.973l-4.282 12.617"/><path d="m154.22 209.66c11.406 0 29.707 5.368 29.707 5.368-2.02 7.398-19.457 52.41-19.457 52.41h18.781c5.371-5.371 17.242-36.36 22.14-49.05 1.132-2.934 2.515-6.785 3.925-10.805-17.11-5.848-36-9.02-55.1-9.02-19.09 0-37.61 3.176-54.723 9.02 1.415 4.02 2.793 7.871 3.93 10.805 4.894 12.691 16.769 43.68 22.14 49.05h18.786c0 0-17.446-45.02-19.457-52.41 0 0 17.918-5.368 29.328-5.368"/><path d="m214.8 177.42l-19.469-65.18c-3.527-3.781-8.938-6.988-14.32-9.535-16.543-7.734-17.86-14.12-17.86-14.12 7.832-4.184 13.07-14.523 13.07-25.934 0-15.218-9.769-24.24-21.824-24.24-12.04 0-21.816 9.02-21.816 24.24 0 11.414 5.242 21.75 13.08 25.934 0 0-1.32 6.387-17.863 14.12-5.383 2.547-10.797 5.754-14.321 9.535l-19.468 65.18c-1.293 4.098-.644 10.512 1.203 17.555 18.254-6.164 38.676-9.664 59-9.664 20.328 0 41.12 3.5 59.38 9.664 1.847-7.04 2.492-13.457 1.203-17.555"/><path d="m53.48 215.33l9.621 9.973 153.34-147.87-9.617-9.972-153.35 147.87"/><g fill="#fff"><path d="m94.58 175.77l.531 18.684 91.74-88.4-12.832-6.989-79.44 76.71"/><path d="m95.3 178.38l1.164 12.777-1.469 3.609 1.949 1.7.473 5.187 12.418-1.129-2.113-23.273-12.422 1.129"/></g></g></svg>
